X:909
T:Maighdeanan Na #2
C:Joe Buchanan's Scottish Tome - Page 522.2
I:522 2
Z:Carl Allison
R:Waltz
L:1/4
M:3/4
K:G
F | "G"G2 B | "Am"c3 | "Em"B3 | "D7"A2 F | "C"E3 | "D7"F3 | "Em"E2 B, | "G"D3 |
"C"E3 | "D7"G2 F | "G"G3- | G3 | "G"G2 B | "Am"c3 | "Em"B3 | "D7"A2 F |
"C"D3 | "D7"F3 | "Em"E2 B, | "G"D3 | "C"E3 | "D7"G2 F | G3- | G3 |
"G"G2 B | "G"d3 | "Bm"d3 | "C"e2 c | "Am"A3 | "D7"A3 | "G"B2 d | "C"e3 |
"Am"e3 | "G"d2 B | "Bm"d3 | "D7"(c2 B) | "Em"A2 G | "G"G3 | "G"d3 | "G"B2 G |
"C"E3 | "D7"(F2 G) | "G"B2 G | "G"D3 | "C"E3 | "C/D7"G2 F | "G"G3- | "G"G3 |
